X: 27
T:RIDEE 6 TEMPS
M:4/4
L:1/8
Q:1/4=140
C:Yves BELOTTEAU
K:C
|:Aeedefez|dcBz:|!
|BcdcdeAz|BA^GE|BcdcdeAz|^F^GA2|!
|BcdcdeAz|BA^GE|Bcdcdeed/2c/2|BcA2|!
